core/assets/icons/basket.svg

<svg width="24" height="24" viewBox="0 0 24 24" xmlns="http://www.w3.org/2000/svg"><g id="basket"><path id="Vector" d="M5.10349 6.3845L2 3.3322L3.35413 2L6.45666 5.05324H21.043C21.1921 5.05323 21.3392 5.08752 21.4725 5.15338C21.6058 5.21924 21.7216 5.31485 21.8107 5.43256C21.8997 5.55028 21.9596 5.68685 21.9855 5.83137C22.0114 5.97589 22.0025 6.12436 21.9597 6.26493L19.663 13.7968C19.6039 13.9909 19.4828 14.161 19.3176 14.2819C19.1525 14.4028 18.9521 14.4681 18.7462 14.4681H7.01745V16.3511H17.5442V18.2341H6.06047C5.80666 18.2341 5.56325 18.1349 5.38378 17.9583C5.20431 17.7817 5.10349 17.5423 5.10349 17.2926V6.3845ZM7.01745 6.93621V12.5851H18.0342L19.7568 6.93621H7.01745ZM6.53896 22C6.15825 22 5.79313 21.8512 5.52393 21.5864C5.25472 21.3215 5.10349 20.9623 5.10349 20.5878C5.10349 20.2132 5.25472 19.854 5.52393 19.5892C5.79313 19.3243 6.15825 19.1755 6.53896 19.1755C6.91967 19.1755 7.28479 19.3243 7.55399 19.5892C7.82319 19.854 7.97443 20.2132 7.97443 20.5878C7.97443 20.9623 7.82319 21.3215 7.55399 21.5864C7.28479 21.8512 6.91967 22 6.53896 22ZM18.0227 22C17.642 22 17.2769 21.8512 17.0077 21.5864C16.7385 21.3215 16.5873 20.9623 16.5873 20.5878C16.5873 20.2132 16.7385 19.854 17.0077 19.5892C17.2769 19.3243 17.642 19.1755 18.0227 19.1755C18.4034 19.1755 18.7685 19.3243 19.0378 19.5892C19.307 19.854 19.4582 20.2132 19.4582 20.5878C19.4582 20.9623 19.307 21.3215 19.0378 21.5864C18.7685 21.8512 18.4034 22 18.0227 22Z"/></g></svg>

<svg xmlns="http://www.w3.org/2000/svg" width="24" height="24" fill="none"><path fill="#191C22" d="M5.103 6.385 2 3.332 3.354 2l3.103 3.053h14.586a.97.97 0 0 1 .768.38.935.935 0 0 1 .149.832l-2.297 7.532a.941.941 0 0 1-.345.485.967.967 0 0 1-.572.186H7.017v1.883h10.527v1.883H6.06a.965.965 0 0 1-.676-.276.934.934 0 0 1-.28-.665V6.384Zm1.914.551v5.65h11.017l1.723-5.65H7.017ZM6.54 22c-.38 0-.746-.149-1.015-.414a1.4 1.4 0 0 1-.42-.998 1.4 1.4 0 0 1 .42-.999c.27-.265.634-.413 1.015-.413.38 0 .746.148 1.015.413a1.4 1.4 0 0 1 0 1.997c-.27.265-.634.414-1.015.414Zm11.484 0c-.381 0-.746-.149-1.015-.414a1.4 1.4 0 0 1-.42-.998 1.4 1.4 0 0 1 .42-.999c.269-.265.634-.413 1.015-.413.38 0 .745.148 1.015.413a1.4 1.4 0 0 1 0 1.997c-.27.265-.635.414-1.015.414Z"/></svg>
